X: 37049
T: Silver Pin, The
R: mazurka
M: 3/4
K: Dmajor
|:A/ f>g|a>f d2 e>d|A>d f2 g>f|f>e e2 f>e|e>d d2 (3efg|
a>f d2 e>d|A>d f2 A>f|a>g e>A f>A|d2- d3/2:|
|:c/ (3cBA|A>e c>e A2|A>f d>f A2|A>g e>g A2|
[1 b>a ^g>a (3fed|A>e c>e A>e|A>f d>f A>f|a>g e>A f>A|d2- d3/2:|
[2 b>a ^g>a f>=g|a>f d2 e>d|A>d f2 (3Adf|a>g e>A f>A|d2- d3/2||

